X: 27
T:The Irish Rover
R:march
Z:John Chambers <jc@eddie.mit.edu>
M:2/4
L:1/8
K:D
|:D2 FG|A2 de|f2 ed|d2 cB|A2 BG|[1 F2 AF|E4 -|EG FE:|[2 FG -GE|D4 -|DA Bc||
d3e|f2 ed|e>f ec|A2 Bc|d3e|f2 ed|e3c|AG FE|
D2 FG|A2 de|f2 ed|G2 FE|D2 FA|d2 f2|e4|d2|]
